X:1
T:3 Lieder, Op.4
T:Komm, wir wandeln zusammen
T:2. Komm, wir wandeln zusammen
T:Peter Cornelius
T:Peter Cornelius (trans. Mabelle Shapleigh) 
T:3 Lieder, Op.4
T:OpenScore (CC0)
T:OpenScore (CC0)
T:OpenScore (CC0)
C:Peter Cornelius
Z:Peter Cornelius
Z:OpenScore (CC0)
%%score 1 { ( 2 4 ) | ( 3 5 ) }
L:1/8
Q:1/4=60
M:3/4
K:Db
V:1 treble nm="Gesang\nVoice"
V:2 treble nm="Pianoforte"
V:4 treble 
V:3 bass 
V:5 bass 
V:1
"^Mässig bewegt""^Moderato con moto" z6 | z6 | z6 | z6 |!p! (3:2:2f2 e (3e d c (3c B A | %5
w: ||||Komm, wir wan- deln zu- sam- men im|
w: ||||Come, we'll wan- der a- lone in the|
 A2 F2 z d | d2 c2 B2 | (3(Ac) B A2 !fermata!z =A || %8
w: Mond- schein! So|zaub- risch glänzt|je- * des Blatt, Viel-|
w: moon- light, Each|leaf shines up-|on _ the tree, Per-|
[K:F][Q:1/4=65]"^etwas bewegter"[Q:1/4=65]"^poco più moto" (3A A A (3A B c (3c G c | %9
w: leicht steht auf ei- nem ge- schrie- ben, wie|
w: haps stands on one of them wri- ten How|
 f3 f f3/2 _e/ | d4 z d | (g2 f2) d2 | c4- c c | ((f2 c4-) | c4) z2 || %15
w: lieb mein Herz dich|hat, Wie|lieb _ mein|Herz _ dich|hat. _|_|
w: dear thou art to|me, How|dear _ thou|art _ to|me. _|_|
[K:Db] (3:2:2f2 e (3e d c (3c B A | A2 F2 z d | d2 c2 B2 | (3A c B A2 !fermata!z!p! =A || %19
w: Komm, wir wan- deln zu- sam- men im|Mond- schein! Der|Mond strahlt aus|Wel- len be- wegt, Viel-|
w: Come, we'll wan- der a- lone in the|moon- light! The|wave bears the|moon on its crest, Per-|
[K:F][Q:1/4=70]"^etwas bewegter" (3A A A"^poco più moto" (3A B c (3c G c | f3 f f3/2 _e/ | d4 z d | %22
w: leicht, dass du ah- nest, wie se- lig Mein|Herz dein Bild- nis|hegt, Mein|
w: haps thou dost feel how thine i- mage Is|mir- rored in my|breast, Is|
 (g2 f2) d2 | c4- c c | ((f2 c4-) | c4) z2 || %26
w: Herz _ dein|Bild- * nis|hegt. _|_|
w: mir- * rored|in _ my|breast. _|_|
[K:Db][Q:1/4=73]"_etwas zunehmende Bewegung"[Q:1/4=75]"_poco accel." z6[Q:1/4=75]"^T" | %27
w: |
w: |
"^getragen""^tenuto"[Q:1/4=77]"^T" d4 d2 | g2 B3 B | e4 c A | A2 d4 | z2 z2 z!p! B | B2 A2 B2 | %33
w: Komm, wir|wan- deln zu-|sam- men im|Mond- schein!|Der|Mond will ein|
w: Come, we'll|wan- der a-|lone in the|moon- light,|A|robe will the|
!<(! d2 c2!<)! d2 | e3 e (3=e ^d e ||[K:A] g2 f2 e2 | e4 c2 | z2 c2 c2 ||[K:Db] f4 d A | g4 c2 | %40
w: kö- nig- lich|Kleid aus gol- de- nen|Strah- len dir|we- ben,|dass du|wan- delst in|Herr- lich-|
w: moon weave for|thee, Ar- rayed thus in|sil- ve- ry|rai- ment,|Thou wilt|wan- der in|ma- jes-|
 d4 z2 | z6 | z2!p![Q:1/4=70]"^T" A2[Q:1/4=66]"^T" B2 |[Q:1/4=63]"^T" d2 c2[Q:1/4=60]"^T" d2 | %44
w: keit.||Komm, wir|wan- deln zu-|
w: ty.||Come, we'll|wan- der a-|
 f2 e2 A2 | A4 d2- | d4 z2 | !fermata!z6 |] %48
w: sam- men im|Mond- schein.|_||
w: lone in the|moon- light.|_||
V:2
!p! z [GA][GA][GA][GA][GA] | z2 (A2 B2 | d2 c2 d2 | e2 =e4) | %4
!mf! (3:2:1f3-!<(! (3:2:2f2 f (3:2:2g2 g!<)! |!>(! (3:2:2g2 f d2!>)!!p! (3:2:2A2 d | (d2 c2 B2 | %7
 (3AcB A3) [F=A] ||[K:F] (3(AAA (3ABA (3AGc) | (3(cBA (3AB=B (3Bc^c) | %10
 (3(dcB(3FD[I:staff +1] B, (3F,B,F,) |[I:staff -1] (3(dcB(3FD[I:staff +1] B, (3G,B,G,) | %12
[I:staff -1] (3(cAG(3EC[I:staff +1] B, (3G,B,G,) | %13
[I:staff -1] (3(cAG(3FC[I:staff +1] A, (3F,A,F,) | %14
[I:staff -1] (3(c_AG(3FC)[I:staff +1] (_A, (3_E,A,E,) || %15
[K:Db]!mf![I:staff -1] (3:2:1f3-!<(! (3:2:2(f2 f (3:2:2g2 g)!<)! | %16
!>(! (3:2:2(g2 f d2!>)!!p! (3:2:2A2 d | d2 c2 B2 | (3AcB A3) [F=A] ||[K:F] (3(AAA (3ABA (3AGc) | %20
 (3(cBA (3AB=B (3Bc^c) | (3(dcB(3FD[I:staff +1] B, (3F,B,F,) | %22
[I:staff -1] (3(dcB(3FD[I:staff +1] B, (3G,B,G,) | %23
[I:staff -1] (3(cAG(3EC[I:staff +1] B, (3G,B,G,) | %24
[I:staff -1] (3(cAG(3FC[I:staff +1] A, (3F,A,F,) | %25
[I:staff -1] (3(c_AG(3FC)[I:staff +1] (_A, (3_E,A,E,) || %26
[K:Db][I:staff -1] (3:2:2(f2 e (3edc (3cBA) |"_crescendo" (3:2:2(a2 g (3gfe (3ecd) | %28
 (3:2:2(b2 a (3agf (3fed) | (3:2:2(c'2 b (3bag (3fec) | (3:2:2(d'2 c' (3c'ba (3agf) | %31
!>(! (3(fgf (3fed (3dcB)!>)! |!p! z [GB][GA][GA][GA][GA] | z [GA][GA][GA][GA][GA] | %34
 z"_cresc." [GA] [GA][GA] [=E^G^c][EGc] ||[K:A] [EGd]6 |!mf! (3:2:2(c'2 b (3bag (3gfe) | %37
 (3(edc (3cBA (3AG=G) ||[K:Db] (3:2:2(d'2 c' (3c'ba (3agf) | (3:2:2(b2 a (3agf (3fec) | %40
 (3:2:2(f2 e (3edc (3cBA) | [GA][GA][GA][GA][GA][GA] | z2 A2 B2 | [GA][GA][GA][GA][GA][GA] | %44
 z [GA][GA][GA][GA][GA] | (e2 A4) |!mf!!>(! (!>!_f2 __B4)!>)! | (=f2 !fermata!A4) |] %48
V:3
 z2 (A,2 B,2 | D2 C2 D2 | E4 B,2 | (C4) C2) | (3:2:1[A,D]3- (3:2:2[A,D]2 =A, (3:2:2B,2 C | D4 D2 | %6
 (E4 D2 | (3CED C3) !fermata!C ||[K:F] (3(C=B,C (3^CDC (3:2:2=C2 _B,) | %9
 (3(A,G,F, (3F,G,^G, (3G,A,A,) | B,,4 x2 | B,,4 x2 | B,,4 x2 | A,,4 x2 | _A,,4 x2 || %15
[K:Db] (3:2:1[A,D]3- (3:2:2([A,D]2 =A, (3:2:2B,2 C) | D4 D2 | (E4 D2 | (3CED C3) !fermata!C || %19
[K:F] (3(C=B,C (3^CDC (3:2:2=C2 _B,) | (3(A,G,F, (3F,G,^G, (3G,A,A,) | B,,4 x2 | B,,4 x2 | %23
 B,,4 x2 | A,,4 x2 | _A,,4 x2 ||[K:Db] (3:2:2(D,,2 D, (3:2:2F,2 A, (3:2:2C2 D) | %27
 (3:2:2(F,,2 F, (3:2:2A,2 D (3:2:2F2 _F) | (3:2:1E3- (3:2:2E2 =F (3:2:1G3 | %29
 (3:2:2(G,,2 E, (3:2:2G,2 B, (3:2:2C2 E) | (3:2:2(D,,2 D, (3:2:2F,2 A, (3:2:2C2 D) | %31
 (3:2:1(G3- (3:2:2G2 F (3:2:2E2 D) | C2 z2 (A,2 | B,2 A,2 B,2 | C2 =B,>C ^C2) || %35
[K:A] (3:2:2z2 (E, (3:2:2G,2 A, (3^A,B,E,) | %36
 (3:2:2(=A,,,2!<(! A,, (3:2:2C,2 E, (3:2:2^G,2 A,)!<)! | %37
!>(! (3:2:2(^B,2 C (3:2:2E2 C!>)! (3:2:1A,3) || %38
[K:Db] (3:2:2(_A,,,2!<(! A,, (3:2:2C,2 _D, (3:2:2=E,2 F,!<)! | %39
 (3:2:2A,2 C (3:2:2=D2 E (3:2:2G2 A,) | (3:2:2z2 (A,, (3:2:2F,2 A, (3:2:2C2 D) | z2!p! (A,2 B,2 | %42
 D2 C2 D2 | E4 B,2 | C4 [C,A,]2) | [D,A,]6 | [__B,D]6 |!pp! [A,D]6 |] %48
V:4
 x6 | [GA][GA][GA][GA][GA]!<(![GA] | [GA][GA][GA][GA]!<)![GA][GA] | [GA][GA][GA][GA][GA][GA] | %4
 (3:2:1[FA]3- (3:2:2[FA]2 F (3:2:2G2 A | A2 F2 F2 | [GA]4 G2 | G2- G3 !fermata!x || %8
[K:F] (3FFF (3:2:2F2 F (3:2:2E2 E | (3[CF][CF][CF] (3[CF][CF][_EF] (3[EF][EF][EF] | [DF]4 x2 | %11
 [DF]4 x2 | [CE]4 x2 | [CF]4 x2 | [CF]4 [C_G_A]2 ||[K:Db] (3:2:1[FA]3- (3:2:2[FA]2 F (3:2:2G2 A | %16
 A2 F2 F2 | [GA]4 G2 | G2- G3 !fermata!x ||[K:F] (3FFF (3:2:2F2 F (3:2:2E2 E | %20
 (3[CF][CF][CF] (3[CF][CF][_EF] (3[EF][EF][EF] | [DF]4 x2 | [DF]4 x2 | [CE]4 x2 | [CF]4 x2 | %25
 [CF]4 [C_G_A]2 ||[K:Db] (3:2:1[FA]3- (3:2:2[FA]2 [FA] (3:2:2[FA]2 [FA] | %27
 (3:2:1[Ad]3- (3:2:2[Ad]2 A (3:2:2A2 A | (3:2:1[Bd]3- (3:2:2[Bd]2 [Bd] (3:2:2B2 B | %29
 (3:2:1[de]3- (3:2:2[de]2 [de] (3:2:2[GA]2 [GA] | (3:2:1[df]3- (3:2:2[df]2 [df] (3:2:2[Ad]2 [Ad] | %31
 (3:2:1B3- (3:2:1B3 (3:2:1G3 | x6 | x6 | x6 ||[K:A] x6 | %36
 (3:2:1[ce]3- (3:2:2[ce]2 [ce] (3:2:2[Ac]2 [Ac] | (3:2:1[EA]3 (3:2:2A2 E (3:2:2[CE]2 [CE] || %38
[K:Db] (3:2:1[df]3- (3:2:2[df]2 [df] (3:2:2[Ad]2 [Ad] | %39
 (3:2:1[ce]3- (3:2:2[ce]2 [Ac] (3:2:2[Ac]2 A | (3:2:1[FA]3- (3:2:2[FA]2 F (3:2:2F2 F | x6 | %42
 z [GA]G[GA][GA][GA] | d2 c2 d2 | f2 e4 | F6 | _F6 | !fermata!=F6 |] %48
V:5
 x6 | x6 | x6 | (C4 C,2) | D,6 | D,4 x2 | x6 | x6 ||[K:F] x6 | x6 | x6 | x6 | x6 | x6 | x6 || %15
[K:Db] D,6 | D,4 x2 | x6 | x6 ||[K:F] x6 | x6 | x6 | x6 | x6 | x6 | x6 ||[K:Db] x6 | x6 | x6 | x6 | %30
 x6 | x6 | x6 | x6 | x6 ||[K:A] x6 | x6 | x6 ||[K:Db] x6 | x6 | x6 | x6 | x6 | x6 | x6 | x6 | D,6 | %47
 !fermata!D,6 |] %48

